X:1421
T:Tanz
C:Valentin Hau\ssmann
O:Germany
B:Hau\ssmann1603
R:Allemande
Z:Transcribed by Frank Nordberg - http://www.musicaviva.com
F:http://abc.musicaviva.com/tunes/haussmann-valentin/haussmann-tanz-01.abc
M:C|
L:1/4
K:G
d2dc|BAG2|A2AG|FED2|
d3c|B2AG|B2A2|G4:|
|:GGB2|G/A/B/c/d2|GGB2|G/A/B/c/d2|
DDF2|D/E/F/G/A2|DDF2|D/E/F/G/A2|
GGBG|GGBG|DDFD|DDFD|
d3c|B2AG|B2A2|G4:|
W:
W:
W:  From Musica Viva - http://www.musicaviva.com
W:  the Internet center for free sheet music downloads.

